!!!!SEGMENT: pl-kk--kk-i-389--009-007_anonim--missa-no-9-agnus.krn
!!!cenid: 17xx:2520
!!!COM: Anonim
!!!COM-rismID: pe30004985
!!!CDT:
!!!CNT:
!!!OPR: [Missa] No. 9.
!!!OTL: Agnus
!!!OMV: 007
!!!PDT:
!!!AGN: Sacred; Mass
!!!YEC: Copyright 2022 Narodowy Instytut Fryderyka Chopina (https://polishscores.org)
!!!YEM: License CC-BY-4.0 (https://creativecommons.org/licenses/by/4.0)
!!!SMS-siglum: PL-Kk
!!!SMS-shelfmark: Kk.I.389
!!!SMS-variant:
!!!SMS-altvar:
!!!SMS-shelfwork: 009-007 M
!!!NIFC-rismSourceID: 1001146182
!!!NIFC-rismChildID: 1001147253
!!!NIFC-islandoraID: pl-kk:6976
!!!URL-pdf-islandora: https://repozytorium.nifc.pl/islandora/object/pl-kk%3A6976/datastream/PDF/view
!!!URL-scan: https://polish.musicsources.pl/pl/lokalizacje/galeria/rekopisy/5999/1 @EN{Scan on Polish Music Sources Website} @PL{Skany w portalu Dziedzictwo Muzyki Polskiej w otwartym dostępie}
!!!IIIF:
!!!ONB-nifc: UWAGA: S – skan 15-16, A – 34-35, T – 53-54, B – 72-73. Części Mszy: Rorate, Kyrie, Gloria, Graduale, Sanctus, Benedictus, Agnus, Dona.
!!!AIN: 1 alto 1 bass 1 soprn 1 tenor
!!!key: C
**kern	**text	**kern	**text	**kern	**text	**kern	**text
*part4	*part4	*part3	*part3	*part2	*part2	*part1	*part1
*staff4	*staff4	*staff3	*staff3	*staff2	*staff2	*staff1	*staff1
*I"Basso.	*	*I"Tenore.	*	*I"Alto.	*	*I"Soprano.	*
*I'B	*	*I'T	*	*I'A	*	*I'S	*
*ICvox	*	*ICvox	*	*ICvox	*	*ICvox	*
*Ibass	*	*Itenor	*	*Ialto	*	*Isoprn	*
*clefF4	*	*clefC4	*	*clefC3	*	*clefC1	*
*k[]	*	*k[b-]	*	*k[b-]	*	*k[b-]	*
*C:	*	*C:	*	*C:	*	*C:	*
*M3/4	*	*M3/4	*	*M3/4	*	*M3/4	*
=1	=1	=1	=1	=1	=1	=1	=1
*	*	*	*	*	*	*all\right:global	*
!	!	!	!	!	!	!LO:TX:t=P:problem:bemol oktawę niżej	!
8C/L	A-	8c\L	A-	8e\L	A-	4g\	A-
8BB/J	.	8d\J	.	8f\J	.	.	.
4C/	.	4e\	.	4g\	.	4cc\	.
8BB/L	-gnus	8d\L	-gnus	8f\L	-gnus	4g\	-gnus
8C/J	.	8c\J	.	8e\J	.	.	.
=2	=2	=2	=2	=2	=2	=2	=2
4G\	De-	4c\	De-	4e\	De-	4g\	De-
4GG/	-i	4B-\	-i	4d\	-i	4g\	-i
4G\	qui	4d\	qui	4f\	qui	4b-\	qui
=3	=3	=3	=3	=3	=3	=3	=3
4c\	tol-	4d\	tol-	4f\	tol-	4g\	tol-
4C/	-lis	4c\	-lis	4e\	-lis	4g\	-lis
4C/	pe-	4e\	pec-	4g\	pec-	4g\	pec-
=4	=4	=4	=4	=4	=4	=4	=4
*	*	*	*	*	*	*2\right	*
2C/	-ca-	8e\L	-ca-	8g\L	-ca-	2g\	-ca-
.	.	8c\J	.	8e\J	.	.	.
.	.	8f\L	.	8a\L	.	.	.
.	.	8e\J	.	8g\J	.	.	.
8BB/L	-ta	8d\L	-ta	8f\L	-ta	4g\	-ta
8C/J	.	8c\J	.	8e\J	.	.	.
=5	=5	=5	=5	=5	=5	=5	=5
4G\	mun-	4c\	mun-	4e\	mun-	4g\	mun-
4GG/	-di	4B-\	-di	4d\	-di	4g\	-di
4r	.	4r	.	4r	.	4r	.
!LO:LB:g=original	!	!LO:LB:g=original	!	!	!	!	!
=6	=6	=6	=6	=6	=6	=6	=6
8C/L	A-	8c\L	A-	8e\L	A-	4g\yy	A-
8BB/J	.	8d\J	.	8f\J	.	.	.
4C/	.	4e\	.	4g\	.	4cc\yy	.
8BB/L	-gnus	8d\L	-gnus	8f\L	gnus	4g\yy	-gnus
8C/J	.	8c\J	.	8e\J	.	.	.
!	!	!	!	!LO:LB:g=original	!	!	!
=7	=7	=7	=7	=7	=7	=7	=7
4G\	De-	4c\	De-	4e\	De-	4g\yy	De-
4GG/	-i	4B-\	-i	4d\	-i	4g\yy	-i
4G\	qui	4d\	qui	4f\	qui	4b-\yy	qui
=8	=8	=8	=8	=8	=8	=8	=8
4c\	tol-	4d\	tol-	4f\	tol-	4g\yy	tol-
4C/	-lis	4c\	-lis	4e\	-lis	4g\yy	-lis
4C/	pec-	4e\	pe-	4g\	pec-	4g\yy	pec-
=9	=9	=9	=9	=9	=9	=9	=9
2C/	-ca-	8e\L	-ca-	8g\L	-ca-	2g\yy	-ca-
.	.	8c\J	.	8e\J	.	.	.
.	.	8f\L	.	8a\L	.	.	.
.	.	8e\J	.	8g\J	.	.	.
8BB/L	-ta	8d\L	-ta	8f\L	-ta	4g\yy	-ta
8C/J	.	8c\J	.	8e\J	.	.	.
=10	=10	=10	=10	=10	=10	=10	=10
4G\	mun-	4c\	mun-	4e\	mun-	4g\yy	mun-
4GG/	-di	4B-\	-di	4d\	-di	4g\yy	-di
4r	.	4r	.	4r	.	4ryy	.
=11	=11	=11	=11	=11	=11	=11	=11
4C/	mi-	4c\	mi-	4e\	mi-	4g\	mi-
8B-X\L	.	8e\L	.	8g\L	.	8g\L	.
8G\J	.	8c\J	.	8e\J	.	8b-X\J	.
8E\L	-se-	8c\L	-se-	4g\	-se-	8g\L	-se-
8C\J	.	8e\J	.	.	.	8cc\J	.
!LO:LB:g=original	!	!LO:LB:g=original	!	!	!	!	!
=12	=12	=12	=12	=12	=12	=12	=12
*	*	*2\right	*	*	*	*	*
4F\	-re-	2c\	-re-	4a\	-re-	4cc\	-re-
4E\	.	.	.	4g\	.	4b-X\	.
4F\	-re	4c\	-re	4a\	-re	4a\	-re,
=13	=13	=13	=13	=13	=13	=13	=13
4D\	mi-	2d\	mi-	4f#X\	mi-	4a\	mi-
8c\L	.	.	.	8a\L	.	8a\L	.
8A\J	.	.	.	8f#\J	.	8cc\J	.
8F#X\L	-se-	4d\	-se-	8a\L	-se-	8a\L	-se-
8D\J	.	.	.	8f#\J	.	8cc\J	.
!	!	!	!	!	!	!LO:LB:g=original	!
=14	=14	=14	=14	=14	=14	=14	=14
4G\	-re-	4B-\	-re-	4g\	-re-	2dd\	-re-
4D\	.	4A\	.	4f#X\	.	.	.
4GG/	-re,	4B-\	-re	4g\	-re	4dd\	-re,
!	!	!	!	!LO:LB:g=original	!	!	!
=15	=15	=15	=15	=15	=15	=15	=15
4GG/	mi-	4r	.	4r	.	4r	.
4G\	.	4d\	mi-	4fn\	mi-	4b-\	mi-
4G\	-se-	4d\	-se-	4f\	-se-	4b-\	-se-
=16	=16	=16	=16	=16	=16	=16	=16
8E\L	-re-	8c\L	-re-	8g\L	-re-	2g\	-re-
8C\J	.	8e\J	.	8e\J	.	.	.
8BB\L	.	8d\L	.	8d\L	.	.	.
8D\J	.	8B-\J	.	8f\J	.	.	.
8C\L	-re	8e\L	-re	8e\L	-re	4g\	-re
8E\J	.	8c\J	.	8g\J	.	.	.
=17	=17	=17	=17	=17	=17	=17	=17
4F\	no-	4d\	no-	8a\L	no-	4a\	no-
.	.	.	.	8f\J	.	.	.
4G\	.	4c\	.	4e\	.	2g\	.
4GG/	.	4B-\	.	4d\	.	.	.
=18	=18	=18	=18	=18	=18	=18	=18
2C/	-bis	2c\	-bis	4.e\	-bis	2g\	-bis,
.	.	.	.	8r	.	.	.
4r	.	4r	.	4r	.	4r	.
!LO:LB:g=original	!	!LO:LB:g=original	!	!	!	!	!
=19	=19	=19	=19	=19	=19	=19	=19
!	!	!	!	!LO:TX:t=P:problem:takty 19-26 zapisane za pomocą repetycji	!	!LO:TX:t=P:problem:takty 19-26 zapisane za pomocą repetycji	!
4C/	Mi-	4c\	mi-	4e\yy	mi-	4g\yy	mi-
8B-X\L	.	8e\L	.	8g\Lyy	.	8g\Lyy	.
8G\J	.	8c\J	.	8e\Jyy	.	8b-X\Jyy	.
8E\L	-se-	8c\L	-se-	4g\yy	-se-	8g\Lyy	-se-
8C\J	.	8e\J	.	.	.	8cc\Jyy	.
=20	=20	=20	=20	=20	=20	=20	=20
4F\	-re-	2c\	-re-	4a\yy	-re-	4cc\yy	-re-
4E\	.	.	.	4g\yy	.	4b-X\yy	.
4F\	-re	4c\	-re	4a\yy	-re	4a\yy	-re,
=21	=21	=21	=21	=21	=21	=21	=21
4D\	mi-	2d\	no-	4f#X\yy	mi-	4a\yy	mi-
8c\L	.	.	.	8a\Lyy	.	8a\Lyy	.
8A\J	.	.	.	8f#\Jyy	.	8cc\Jyy	.
8F#X\L	-se-	4d\	-bis	8a\Lyy	-se-	8a\Lyy	-se-
8D\J	.	.	.	8f#\Jyy	.	8cc\Jyy	.
=22	=22	=22	=22	=22	=22	=22	=22
4G\	-re-	4B-\	no-	4g\yy	-re-	2dd\yy	-re-
4D\	.	4A\	.	4f#X\yy	.	.	.
4GG/	-re	4B-\	-bis	4g\yy	-re	4dd\yy	-re,
=23	=23	=23	=23	=23	=23	=23	=23
4GG/	mi-	4r	.	4ryy	.	4ryy	.
4G\	.	4d\	mi-	4fn\yy	mi-	4b-\yy	mi-
4G\	-se-	4d\	-se-	4f\yy	-se-	4b-\yy	-se-
=24	=24	=24	=24	=24	=24	=24	=24
8E\L	-re-	8c\L	-re-	8g\Lyy	-re-	2g\yy	-re-
8C\J	.	8e\J	.	8e\Jyy	.	.	.
8BB\L	.	8d\L	.	8d\Lyy	.	.	.
8D\J	.	8B-\J	.	8f\Jyy	.	.	.
4C/	-re	8e\L	-re	8e\Lyy	-re	4g\yy	-re
.	.	8c\J	.	8g\Jyy	.	.	.
!LO:LB:g=original	!	!	!	!	!	!	!
=25	=25	=25	=25	=25	=25	=25	=25
4F\	no-	4d\	no-	8a\Lyy	no-	4a\yy	no-
.	.	.	.	8f\Jyy	.	.	.
4G\	.	4c\	.	4e\yy	.	2g\yy	.
4GG/	.	4B-\	.	4d\yy	.	.	.
!	!	!LO:LB:g=original	!	!	!	!	!
=26	=26	=26	=26	=26	=26	=26	=26
2C/	-bis	2c\	-bis	4.e\yy	-bis	2g\yy	-bis,
.	.	.	.	8ryy	.	.	.
4r	.	4r	.	4ryy	.	4ryy	.
=27	=27	=27	=27	=27	=27	=27	=27
*M3/4	*	*M3/4	*	*M3/4	*	*M3/4	*
4C\	A-	4e\	A-	4g\	A-	4cc\	A-
4E\	.	4c\	.	4e\	.	4g\	.
4G\	-gnus	4d\	-gnus	4f\	-gnus	4b-\	-gnus
=28	=28	=28	=28	=28	=28	=28	=28
8c\L	De-	8e\L	De-	8g\L	De-	8cc\L	De-
8G\J	.	8d\J	.	8f\J	.	8b-\J	.
4C/	-i	4c\	-i	4e\	-i	4g\	-i
4r	.	4r	.	4r	.	4r	.
=29	=29	=29	=29	=29	=29	=29	=29
4GG/	qui	4d\	qui	4f\	qui	4b-\	qui
4G\	tol-	4B-\	tol-	4d\	tol-	4dd\	tol-
8G\	-lis	8c\	-lis	8e\	-lis	8cc\	-lis
8G\	pec-	8c\	pec-	8e\	pec-	8cc\	pec-
!	!	!	!	!LO:LB:g=original	!	!	!
=30	=30	=30	=30	=30	=30	=30	=30
!	!	!	!	!	!	!LO:LB:g=original	!
4G\	-ca-	8d\L	-ca-	8f\L	-ca-	8b-\L	-ca-
.	.	8c\J	.	8e\J	.	8cc\J	.
4GG/	-ta	4B-\	-ta	4d\	-ta	4g\	-ta
8r	.	8r	.	8r	.	8r	.
8G\	pec-	8B-\	pe-	8d\	pec-	8g\	pec-
!LO:LB:g=original	!	!	!	!	!	!	!
=31	=31	=31	=31	=31	=31	=31	=31
4c\	-ca-	8c\L	-ca-	8e\L	-ca-	2g\	-ca-
.	.	8e\J	.	8g\J	.	.	.
4B\	.	4d\	.	4f\	.	.	.
4c\	-ta	4c\	-ta	4e\	-ta	4g\	-ta
!	!	!LO:LB:g=original	!	!	!	!	!
=32	=32	=32	=32	=32	=32	=32	=32
*2\right	*	*	*	*2\right	*	*	*
2G\	mun-	2B-\	mun-	2d\	mun-	2g\	mun-
4F#X\	.	4c\	.	4e\	.	4a\	.
=33	=33	=33	=33	=33	=33	=33	=33
2G\	-di	2B-\	-di.	2d\	-di	2g\	-di,
!	!	!LO:TX:b:t=Dona nobis ut Kyrie	!	!LO:TX:b:t=Dona nobis ut Kyrie.	!	!LO:TX:b:t=Dona nobis ut Kyrie.	!
4r	.	4r	.	4r	.	4r	.
==	==	==	==	==	==	==	==
*-	*-	*-	*-	*-	*-	*-	*-
!!!system-decoration: [(s1,s2,s3,s4)]
!!!ENC: Filip Voros
!!!END: 2023-11-12
!!!ENC: Leszek Kubiak
!!!END: 2024-01-20
